X:1
T:Baim, LM
T:Lowell Mason, 1844
T:Baim, LM
T:Public Domain
C:Lowell Mason, 1844
Z:Public Domain
%%score ( 1 2 ) ( 3 4 )
L:1/8
M:2/4
K:C
V:1 treble 
V:2 treble 
V:3 bass 
V:4 bass 
V:1
 G2 GG | (c>A F)D | G2 [FB]2 | [Ec]2 [Ge]2 | [Gd]>[^Fc] [GB][Gc] | [GB]2 [^FA]2 x | G4 | %7
 [EG]2 [EG][DF] | ([CE][EG]) ([Ac][FA]) | [EG]2 ([EG][DF]) | [CE]3 [Ec] | [Ge]2 (EG) | [Ff]3 [Ad] | %13
 c2 (z F) x | [Ec]4 |] %15
V:2
 G2 GG | c>A FD | G2 x2 | x4 | x4 | x5 | G4 | x4 | x4 | x4 | x4 | x2 c2 | x4 | G3 B2 | x4 |] %15
V:3
 [G,,G,]2 [G,,G,][G,,G,] | ([C,C]>[A,,A,] [F,,F,])[D,,D,] | [G,,G,]2 [D,G,]2 | C,2 C,2 | %4
 [B,,G,]>[A,,D,] [G,,E,][C,E,] | D,2 z C, x | [G,,B,,G,]4 | C,2 C,[G,,C,] | (G,,C,) C,2 | %9
 [C,G,]2 [F,,G,,]2 | [F,,C,]C, [C,C]2 | [C,C]2 [C,_B,]2 | [C,A,]3 F, | [E,G,]2 [G,,D,]2 x | C,4 |] %15
V:4
 x4 | x4 | x4 | C,2 C,2 | x4 | D,3 D,2 | x4 | C,2 C, x | C,2 C,2 | x4 | x C, x2 | x4 | x3 F, | x5 | %14
 C,4 |] %15

